dataset/nuclear/icon.svg

<?xml version="1.0" encoding="UTF-8" standalone="no"?>
<svg
   width="128px"
   height="128px"
   viewBox="0 0 128 128"
   version="1.1"
   id="svg78"
   xml:space="preserve"
   xmlns:xlink="http://www.w3.org/1999/xlink"
   xmlns="http://www.w3.org/2000/svg"
   xmlns:svg="http://www.w3.org/2000/svg"
   xmlns:rdf="http://www.w3.org/1999/02/22-rdf-syntax-ns#"
   xmlns:cc="http://creativecommons.org/ns#"
   xmlns:dc="http://purl.org/dc/elements/1.1/"><title
     id="title2">Linux/128x128</title><defs
     id="defs55"><linearGradient
       id="linearGradient1301"><stop
         style="stop-color:#02628d;stop-opacity:1;"
         offset="0"
         id="stop1297" /><stop
         style="stop-color:#2bbbfc;stop-opacity:1;"
         offset="0.04407027"
         id="stop1305" /><stop
         style="stop-color:#02628d;stop-opacity:1;"
         offset="0.07"
         id="stop1307" /><stop
         style="stop-color:#02628d;stop-opacity:1;"
         offset="0.92731786"
         id="stop1309" /><stop
         style="stop-color:#2cbbfc;stop-opacity:1;"
         offset="0.95959532"
         id="stop1311" /><stop
         style="stop-color:#02628d;stop-opacity:1;"
         offset="1"
         id="stop1299" /></linearGradient><path
       d="M25.1013686,11 L102.898631,11 C107.801984,11 109.580059,11.5105409 111.372651,12.4692299 C113.165244,13.4279189 114.572081,14.834756 115.53077,16.6273486 C116.489459,18.4199412 117,20.1980155 117,25.1013686 L117,102.898631 C117,107.801984 116.489459,109.580059 115.53077,111.372651 C114.572081,113.165244 113.165244,114.572081 111.372651,115.53077 C109.580059,116.489459 107.801984,117 102.898631,117 L25.1013686,117 C20.1980155,117 18.4199412,116.489459 16.6273486,115.53077 C14.834756,114.572081 13.4279189,113.165244 12.4692299,111.372651 C11.5105409,109.580059 11,107.801984 11,102.898631 L11,25.1013686 C11,20.1980155 11.5105409,18.4199412 12.4692299,16.6273486 C13.4279189,14.834756 14.834756,13.4279189 16.6273486,12.4692299 C18.4199412,11.5105409 20.1980155,11 25.1013686,11 Z"
       id="path-2" /><linearGradient
       xlink:href="#linearGradient1301"
       id="linearGradient1303"
       x1="11"
       y1="64"
       x2="117"
       y2="64"
       gradientUnits="userSpaceOnUse" /><linearGradient
       id="linearGradient135126"><stop
         style="stop-color:#9c27b0;stop-opacity:1;"
         offset="0"
         id="stop135122" /><stop
         style="stop-color:#03a9f4;stop-opacity:1;"
         offset="1"
         id="stop135124" /></linearGradient><linearGradient
       xlink:href="#linearGradient135126"
       id="linearGradient3"
       x1="117"
       y1="11"
       x2="12.46923"
       y2="115.37265"
       gradientUnits="userSpaceOnUse" /></defs><use
     fill="url(#linearGradient-1)"
     fill-rule="evenodd"
     xlink:href="#path-2"
     id="use59-6"
     style="fill:url(#linearGradient1303);fill-opacity:1;stroke:none;stroke-width:1"
     transform="matrix(0.98113208,0,0,0.94339623,1.2075469,5.6226415)" /><use
     fill="url(#linearGradient-1)"
     fill-rule="evenodd"
     xlink:href="#path-2"
     id="use59"
     style="fill:url(#linearGradient3);stroke:none;stroke-width:1"
     transform="matrix(0.98113208,0,0,0.94339623,1.2075469,1.6226415)" /><metadata
     id="metadata82"><rdf:RDF><cc:Work
         rdf:about=""><dc:title>Linux/128x128</dc:title></cc:Work></rdf:RDF></metadata><path
     style="fill:#ffffff;fill-opacity:1;stroke:none"
     d="M 30,23.5995 50,49.9999 70.000003,23.5995 Z M 50,49.9999 70.000003,76.4003 90.000008,49.9999 Z m 0,0 H 10 l 20,26.4004 z"
     id="path7917-0-6-2-9-4-8"
     transform="matrix(1.04,0,0,1.04,11.999997,12)" /></svg>

<svg xmlns="http://www.w3.org/2000/svg" xmlns:xlink="http://www.w3.org/1999/xlink" xml:space="preserve" width="128" height="128" viewBox="0 0 128 128"><title>Linux/128x128</title><defs><linearGradient id="a"><stop offset="0" style="stop-color:#02628d;stop-opacity:1"/><stop offset=".044" style="stop-color:#2bbbfc;stop-opacity:1"/><stop offset=".07" style="stop-color:#02628d;stop-opacity:1"/><stop offset=".927" style="stop-color:#02628d;stop-opacity:1"/><stop offset=".96" style="stop-color:#2cbbfc;stop-opacity:1"/><stop offset="1" style="stop-color:#02628d;stop-opacity:1"/></linearGradient><linearGradient xlink:href="#a" id="d" x1="11" x2="117" y1="64" y2="64" gradientUnits="userSpaceOnUse"/><linearGradient id="b"><stop offset="0" style="stop-color:#9c27b0;stop-opacity:1"/><stop offset="1" style="stop-color:#03a9f4;stop-opacity:1"/></linearGradient><linearGradient xlink:href="#b" id="e" x1="117" x2="12.469" y1="11" y2="115.373" gradientUnits="userSpaceOnUse"/><path id="c" d="M25.101 11H102.9c4.903 0 6.681.51 8.474 1.47a10 10 0 0 1 4.158 4.157c.958 1.793 1.469 3.571 1.469 8.474V102.9c0 4.903-.51 6.681-1.47 8.474a10 10 0 0 1-4.157 4.158c-1.793.958-3.571 1.469-8.474 1.469H25.1c-4.903 0-6.681-.51-8.474-1.47a10 10 0 0 1-4.158-4.157c-.958-1.793-1.469-3.571-1.469-8.474V25.1c0-4.903.51-6.681 1.47-8.474a10 10 0 0 1 4.157-4.158C18.42 11.511 20.198 11 25.101 11"/></defs><use xlink:href="#c" fill="url(#linearGradient-1)" fill-rule="evenodd" style="fill:url(#d);fill-opacity:1;stroke:none;stroke-width:1" transform="matrix(.98113 0 0 .9434 1.208 5.623)"/><use xlink:href="#c" fill="url(#linearGradient-1)" fill-rule="evenodd" style="fill:url(#e);stroke:none;stroke-width:1" transform="matrix(.98113 0 0 .9434 1.208 1.623)"/><path d="M30 23.6 50 50l20-26.4ZM50 50l20 26.4L90 50Zm0 0H10l20 26.4z" style="fill:#fff;fill-opacity:1;stroke:none" transform="translate(12 12)scale(1.04)"/></svg>
